contributed-vectors/clipt.svg

<svg width="192" height="192" viewBox="0 0 192 192" fill="none" xmlns="http://www.w3.org/2000/svg">
<path fill-rule="evenodd" clip-rule="evenodd" d="M96 184C144.601 184 184 144.601 184 96C184 47.399 144.601 8 96 8C47.399 8 8 47.399 8 96C8 144.601 47.399 184 96 184Z" fill="white"/>
<path fill-rule="evenodd" clip-rule="evenodd" d="M92.8708 55.2709C88.9832 56.0644 85.3521 58.8448 83.6682 62.3174C82.6282 64.4621 82.0835 67.2201 82.298 69.2551L82.4486 70.6824H87.3423H92.236L92.3408 68.8895C92.4674 66.7163 92.9656 65.8782 94.4689 65.3086C95.3585 64.9718 96.2433 64.9371 101.546 65.0314C108.247 65.1504 109.099 65.2865 111.986 66.6978C116.446 68.8785 119.642 73.1054 120.519 77.9843C120.757 79.3059 120.83 83.2245 120.837 94.9467L120.845 110.19H125.922H131L130.913 93.6907C130.829 77.8274 130.807 77.116 130.34 75.2498C129.646 72.4744 129.047 70.8799 127.884 68.7113C124.257 61.95 118.2 57.3737 110.484 55.5661C108.803 55.1724 107.536 55.0962 101.505 55.0249C96.0278 54.9603 94.1279 55.0144 92.8708 55.2709ZM74.0247 73.5562C70.6034 74.3777 66.9122 77.2636 65.4322 80.274C63.9212 83.3474 63.9513 82.9011 64.0289 101.007L64.0989 117.384L64.7047 119.571C66.0315 124.361 68.1766 128.075 71.563 131.447C74.8911 134.76 78.7577 136.955 83.507 138.226C85.6761 138.807 85.9482 138.825 94.0795 138.911L102.426 139V133.958V128.917L95.2307 128.913C87.1729 128.908 85.9317 128.759 83.2075 127.467C78.7825 125.367 75.7459 121.728 74.5508 117.093C74.1338 115.477 74.1064 114.442 74.1073 100.391C74.108 85.9378 74.1239 85.3867 74.5577 84.6813C75.4736 83.1912 75.0297 83.2327 89.3518 83.298L102.311 83.3569L102.368 95.9173C102.424 108.031 102.41 108.504 101.976 109.208C101.111 110.611 100.645 110.753 96.6135 110.839C93.9967 110.894 92.8722 110.838 92.6311 110.639C92.3468 110.405 92.2952 108.938 92.2952 101.085L92.295 91.8066H87.3789H82.4631L82.3146 95.6889C82.0492 102.631 82.1396 110.606 82.503 112.307C83.4209 116.604 87.011 119.993 91.3742 120.684C93.4996 121.02 99.451 120.966 101.571 120.591C106.772 119.671 110.895 115.864 112.206 110.77C112.73 108.732 112.726 83.0777 112.201 81.0641C111.274 77.5098 108.186 74.5081 104.439 73.5188C102.662 73.0497 75.9976 73.0826 74.0247 73.5562Z" fill="#BD9AFF"/>
</svg>

<svg xmlns="http://www.w3.org/2000/svg" width="192" height="192" fill="none"><path fill="#fff" fill-rule="evenodd" d="M96 184c48.601 0 88-39.399 88-88S144.601 8 96 8 8 47.399 8 96s39.399 88 88 88Z" clip-rule="evenodd"/><path fill="#BD9AFF" fill-rule="evenodd" d="M92.87 55.27c-3.887.794-7.518 3.575-9.202 7.047-1.04 2.145-1.585 4.903-1.37 6.938l.15 1.427h9.788l.105-1.793c.126-2.173.625-3.01 2.128-3.58.89-.337 1.774-.372 7.077-.278 6.701.12 7.553.255 10.44 1.667a15.719 15.719 0 0 1 8.533 11.286c.238 1.322.311 5.24.318 16.963l.008 15.243H131l-.087-16.5c-.084-15.863-.106-16.574-.573-18.44-.694-2.776-1.293-4.37-2.456-6.539-3.627-6.761-9.684-11.337-17.4-13.145-1.681-.394-2.948-.47-8.979-.541-5.477-.065-7.377-.01-8.634.246ZM74.026 73.557c-3.422.822-7.113 3.708-8.593 6.718-1.51 3.073-1.48 2.627-1.403 20.733l.07 16.377.606 2.187c1.326 4.79 3.472 8.504 6.858 11.876 3.328 3.313 7.195 5.508 11.944 6.779 2.17.581 2.441.599 10.572.685l8.347.089v-10.083l-7.195-.004c-8.058-.005-9.3-.154-12.023-1.446-4.425-2.1-7.462-5.739-8.657-10.374-.417-1.616-.445-2.651-.444-16.702.001-14.453.017-15.004.45-15.71.917-1.49.473-1.448 14.795-1.383l12.959.059.057 12.56c.056 12.114.042 12.587-.392 13.291-.865 1.403-1.331 1.545-5.362 1.631-2.617.055-3.742-.001-3.983-.2-.284-.234-.336-1.701-.336-9.554v-9.278h-9.832l-.148 3.882c-.266 6.942-.175 14.917.188 16.618.918 4.297 4.508 7.686 8.871 8.377 2.126.336 8.077.282 10.197-.093 5.201-.92 9.324-4.727 10.635-9.821.524-2.038.52-27.692-.005-29.706-.927-3.554-4.015-6.556-7.762-7.545-1.777-.47-28.441-.436-30.414.037Z" clip-rule="evenodd"/></svg>
